X: 10031
T: FLANNERY'S JIG
C: Bob McQuillen 3 May 93
B: Bob's Note Book 10 #31
%R: jig
Z: 2021 John Chambers <jc:trillian.mit.edu>
M: 6/8
L: 1/8
K: D
FE \
| DFA FAd | Bcd A2d | cde ecA | dfd AFE |\
| DFA FAd | Bcd A2d | cde ABc | d3 d :|
|: fg \
| a2f fef | a2f fef | gfg efe | dcB Afg |\
| a2f fef | aff f2a | gec ABc | d2f d :|
%%begintext align
%% Back in 1975, Jack Sloanaker had
%% a Fife and Drum Corps down in Lincoln, MA, and Brian Flannery
%% was one of his drummers. Brian was kind enough to write out
%% the drum part to "Fife and Drum" (Bk 1/2 Comb.) for me in invisible
%% ink, so by way of thanks, here's a tune for you, Brian. Hope you're
%% still keeping the beat!
%%endtext

%%sep 1 1 500

%%sep 1 1 500

